!!!OTL: 939. Ein Abendreien.
!!!ODT: 1560
!!!ARE: Europa, Mitteleuropa, Deutschland
!!!SCT: E0939
!!!TXL: @@DE
!!!YEM: Copyright 1995, estate of Helmut Schaffrath.
**kern	**text
*ICvox	*
*M4/4	*
*met(c)	*
*k[b-]	*
*F:	*
!LO:TX:a:t=Mel. vor 1560.	!
{4f	Kommt
=1	=1
4cc	her,
4cc	ihr
4f	lie-
4f	-ben
=2	=2
4cc	Schwe-
4cc	-ſter-
4f}	-lein,
{4f	Kommt
=3	=3
4cc	her,
4cc	ihr
4f	lie-
4f	-ben
=4	=4
4cc	Schwe-
4cc	-ſter-
2f}	-lein,
=5	=5
{2cc	ihr
4dd	al-
4cc	-ler-
=6	=6
4b-	-lieb-
4a	-ſten_Ge-
4g	-ſpie-
4g	-len
=7	=7
2f	mein,
2r}	.
=8	=8
{2cc	ihr
4dd	al-
4cc	-ler-
=9	=9
4b-	-lieb-
4a	-ſten_Ge-
4g	-ſpie-
4g	-len
=10	=10
2f	mein,
4r}	.
{4g	wir
=11	=11
4g	wolln
4g	ſin-
4g	-gen
4f	ein
=12	=12
4e	A-
4f	-bend-
4g}	-rein,
{4g	wir
=13	=13
4g	wolln
4g	ſin-
4g	-gen
4f	ein
=14	=14
4e	A-
4f	-bend-
2g	-rein,
=15	=15
4r}	.
{4b-	von
4a	un-
4f	-ſerm
=16	=16
4g	Her-
4g	-ren
4f	Je-
4f	-ſu-
=17	=17
1f;}	-lein.
==	==
!!!AGN: Tanz - Lied, Reigen, geistlich; Abend
!!!ONB: ESAC (Essen Associative Code) Database: ERK2
!!!AMT: simple quadruple
!!!AIN: vox
!!!EED: Helmut Schaffrath
!!!EEV: 1.0
!!!GTL: Tanz- und Spiellieder.
!!!URL-scan: https://rosdok.uni-rostock.de/mcrviewer/recordIdentifier/rosdok_ppn745177662/iview2/phys_0721.iview2?x=192.47699748739979&y=459.808256439399&scale=0.7029437510502773&rotation=0&layout=singlePageLayout
!!!ENC: Anna Maria Matuszewska
!!!EEV: 2024/12/18
*-	*-
